X:118
T: Der junge Held
N: Q0060I
O: Mitteleuropa, Luxemburg, Trotten
R: Ballade, Verfuehrung, Standesunterschied
M: 2/4
L: 1/16
K: F
AA | ccc2G2B2 | A2G2F2
AA | G2GGD2F2 | E2D2C2z
C | FFF2G2G2 | A4
B4 | cAA2cBG2 | F4z2

@@@ Tune index: 994
